X:361
T: WILLST DU MEINEN WILHELM HABN
N: E0991
O: Europa, Mitteleuropa, Deutschland, Mark, Luckenwalde; Jueterbogk
R: Tanz - Lied, Reigen
M: 2/4
L: 1/8
K: Bb
 | FBBB | AcF2 |
Feee | dfB2 |
Bdff | ecd2 |
BBcc | AAB2

@@@ Tune index: 4674
